X:1385
T: Back of the Pipes
S: B.Breathnach:"Ceol Rince na hEireann" IV/161 (gan ainm)
Z: B.Black
L: 1/8
M: 4/4
R: reel
K: A
ed |: c2 cB A2 ce|fece fgaf|edcB Adcd|BAGA BcdB|
c2 cB A2 ce|fece fgaf|eaga fedc|BEGA BdcB :|
Aceg a2 ga|bgeg a2 ec|Aceg a2 ec|BAGA BdcB|
Aceg a2 ga|bgeg a2 ec|Acec dfBa|befg a2 ed :|
